!!!OTL: Siji Shengchan
!!!ARE: Asia, China,ÿShandong Huimin
!! III, 350
!!!SCT: C1771
!!!YEM: Copyright 1995, estate of Helmut Schaffrath.
**kern
*ICvox
*Ivox
*M2/4
*k[f#c#g#]
*A:
{8ee
8cc#
8cc#
8ee
=1
4.ff#
8ee
=2
8aa
8cc#
8cc#
8ee
=3
2ff#}
=4
{8ff#
8ee
8ff#
8aa
=5
2bb
=6
8bb
16bb
16aa
8ff#
16ff#
16aa
=7
8.bb
16aa
16ff#
16ee
16ff#
16aa
=8
2ee}
=9
{8ccc#
8aa
4bb
=10
8ccc#
8aa
4bb
=11
8eee
16ccc#
16bb
8aa
8ccc#
=12
8bb
8aa
4ff#}
=13
{8bb
8bb
8bb
8bb
=14
8bb
8ff#
4ee}
=15
{8aa
8aa
8aa
8ccc#
=16
8.bb
16aa
16ff#
16ee
16ff#
16aa
=17
2ee}
==
!!!AGN: Xiaodiao
!!!AMT: simple duple
!!!AIN: vox
!!!EED: Helmut Schaffrath
!!!EEV: 1.0
*-
